assets/vkIcon.svg

<svg width="46" height="46" viewBox="0 0 46 46" fill="none" xmlns="http://www.w3.org/2000/svg">
<path d="M13.9165 26.1099C15.0467 27.6411 16.3449 28.9953 18.0225 29.9531C19.922 31.0388 21.9674 31.3665 24.1241 31.2666C25.1321 31.2182 25.4352 30.9555 25.4815 29.9512C25.5128 29.2633 25.5923 28.5772 25.9308 27.9593C26.2637 27.3528 26.7689 27.2382 27.3513 27.6156C27.6415 27.8059 27.8858 28.0445 28.1169 28.2997C28.6846 28.9194 29.2343 29.561 29.8224 30.1604C30.5619 30.9132 31.4388 31.3569 32.5391 31.2665L36.8023 31.2683C37.4884 31.222 37.8453 30.3806 37.4514 29.6126C37.1739 29.0766 36.8098 28.5994 36.4249 28.1368C35.5537 27.0899 34.5272 26.1984 33.5566 25.2514C32.6816 24.3973 32.6262 23.9015 33.3289 22.9158C34.0982 21.8391 34.9231 20.8055 35.6981 19.7345C36.4211 18.734 37.163 17.735 37.5418 16.5386C37.7843 15.7749 37.5698 15.4382 36.7895 15.3033C36.6545 15.2811 36.5139 15.2811 36.377 15.2811L31.7384 15.2754C31.1669 15.2664 30.8525 15.5159 30.6508 16.0225C30.3771 16.7072 30.0959 17.3914 29.7701 18.05C29.0344 19.5481 28.211 20.9959 27.0572 22.2204C26.802 22.4902 26.5188 22.8326 26.0937 22.692C25.5629 22.4979 25.4057 21.6214 25.4147 21.3256L25.4109 15.9711C25.3077 15.2074 25.1372 14.865 24.3774 14.7168L19.5592 14.7168C18.9177 14.7168 18.5938 14.9668 18.2496 15.3679C18.0536 15.6013 17.9925 15.7509 18.3997 15.8286C19.1984 15.9801 19.6515 16.4981 19.7699 17.2992C19.9607 18.5809 19.9475 19.8678 19.8366 21.1533C19.8054 21.5287 19.7405 21.9023 19.5923 22.2536C19.3594 22.8067 18.9821 22.9179 18.4882 22.5775C18.0427 22.2706 17.7284 21.838 17.4192 21.4032C16.2634 19.7697 15.3425 18.0094 14.5897 16.1595C14.3732 15.625 13.9978 15.3016 13.432 15.2921C12.0409 15.2699 10.6484 15.2666 9.25543 15.294C8.41972 15.3087 8.16974 15.7159 8.51209 16.4758C10.0268 19.8473 11.7139 23.1247 13.9165 26.1099Z" fill="white"/>
<path d="M23 0V3.71717L42.2828 3.71717V42.2828H23V46H46V0L23 0Z" fill="#5AAAE7"/>
<path d="M3.71717 42.2828L3.71717 3.71717L23 3.71717V0L0 0L0 46H23V42.2828H3.71717Z" fill="#78B9EB"/>
</svg>

<svg xmlns="http://www.w3.org/2000/svg" width="46" height="46" fill="none" xmlns:v="https://vecta.io/nano"><path d="M13.917 26.1c1.13 1.53 2.428 2.885 4.106 3.843 1.9 1.086 3.945 1.413 6.102 1.314 1.008-.048 1.31-.31 1.357-1.315.03-.688.11-1.374.45-1.992.333-.607.838-.72 1.42-.344a4.02 4.02 0 0 1 .766.684l1.705 1.86c.74.753 1.616 1.197 2.717 1.106l4.263.002c.686-.046 1.043-.888.65-1.656-.277-.536-.642-1.013-1.026-1.476-.87-1.047-1.898-1.938-2.868-2.885-.875-.854-.93-1.35-.228-2.336l2.37-3.18c.723-1 1.465-2 1.844-3.196.242-.764.028-1.1-.752-1.235-.135-.022-.276-.022-.412-.022l-4.64-.006c-.572-.01-.886.24-1.088.747l-.88 2.027c-.736 1.498-1.56 2.946-2.713 4.17-.255.27-.538.612-.964.472-.53-.194-.688-1.07-.68-1.366l-.004-5.355c-.103-.764-.274-1.106-1.033-1.254H19.56c-.642 0-.965.25-1.3.65-.196.233-.257.383.15.46.8.152 1.252.67 1.37 1.47.19 1.282.178 2.57.067 3.854-.03.375-.096.75-.244 1.1-.233.553-.6.664-1.104.324-.445-.307-.76-.74-1.07-1.174-1.156-1.633-2.077-3.394-2.83-5.244-.216-.535-.592-.858-1.158-.867a117.24 117.24 0 0 0-4.177.002c-.836.015-1.086.422-.743 1.182 1.515 3.372 3.202 6.65 5.404 9.634z" fill="#fff"/><path d="M23 0v3.717h19.283v38.566H23V46h23V0H23z" fill="#5aaae7"/><path d="M3.717 42.283V3.717H23V0H0v46h23v-3.717H3.717z" fill="#78b9eb"/></svg>
